X:422
T: Chang tiaotang
N: C2040
O: China,Anhui Nanling
S: III, 538]
R: Xiaodiao]
M: 2/4
L: 1/16
K: D
d2e2e2dB | A4A4 | d2e2d2B2 | A4A4 |
A3Bd4 | B2d2A2F2 | F3BA2F2 | E4D2B,2 |
D2B,2D2E2 | A2B2A4 | d2B2d2F2 | A2B2A4 |
A3Bd4 | B3dA2F2 | F2B2A2F2 | E8

@@@ Tune index: 6977
